X: 17401
T: High Road, The
R: hornpipe
M: 4/4
K: Gmajor
Bc|:dGBd gb (3agf|gf (3gfe dBGE|DGBG d^ced|(3cdc Bd cAFA|
GB (3AGF GDB,D|EGcB cdef|gfgd cAFG|AD (3FGA G2:|
Bc|dg (3gfg dgbg|dB (3cBA G2 FG|A^GAB cBce|
[1(3aba (3gfe d2 Bc|dg (3gfg dgbg|dBGB DGBd|
(3cBA fd cAFG|AD (3FGA G2:|2 (3aba (3gfe d2 dc|
(3Bcd Bd cAFA|GB (3AGF GDB,D|EGce dBGB|AD (3FGA G2||

